X: 8
M:6/8
L:1/8
K:D
e>fa b/2c'/2d'b|afe d>ef|f>ba f>ef|d>BB B2||
a|aba afa|bc'b b2 a|afa bag|"tr"f2 e d2 b|
d'ba baf|afe def|fba fef|d>BB B2||

